X:1
T:The Virgin Stills the Crying
T:The Virgin Stills the Crying
T:John Stainer
T:Tr. from Latin by Henry Ramsden Bramley, 1871
T:Public Domain Courtesy of the Cyber Hymnal™
C:John Stainer
Z:Public Domain
Z:Courtesy of the Cyber Hymnal™
%%score ( 1 2 ) ( 3 4 )
L:1/8
Q:1/4=110
M:6/8
K:F
V:1 treble 
V:2 treble 
V:3 bass 
V:4 bass 
V:1
 [FA] | [FA]2 [FA] [Fc]2 [FA] | [FA]3 [FG]2 [FA] | [FB]2 [FB] [Ed]2 [Ec] | [EB]3 [FA]2 [FA] | %5
w: 1.~The|vir- gin stills the|cry- ing Of|Je- sus, sleep- less|ly- ing; And|
w: 2.~O|Lamb, my love in-|vit- ing, O|Star, my soul de-|light- ing, O|
w: 3.~My|Child, of Might in-|dwel- ing, My|Sweet, all sweets ex-|cell- ing, Of|
w: 4.~My|Joy, my Ex- ul-|ta- tion, My|spir- it’s Con- so-|la- tion; My|
w: 5.~Say,|would’st Thou heav’n- ly|sweet- ness, Or|love of an- swering|meet- ness? Or|
 [F=B]2 [FB] [Fc]2 [FA] | ([FG]2 =B/A/) [FG]2 [FG] | [Ee]2 [Ee] [Fd]2 [^Fc] | ([Gc]3 [Fd]3) | %9
w: sing- ing for His|plea- * * sure, Thus|calls up- on her|Trea- *|
w: Flower of mine own|bear- * * ing, O|Jew- el past com-|par- *|
w: bliss the Fount- ain|flow- * * ing, The|Day- spring ev- er|glow- *|
w: Son, my Spouse, my|Bro- * * ther, O|list- en to Thy|mo- *|
w: is fit mu- sic|want- * * ing? Ho!|An- gels, raise your|chant- *|
 [Ec]3- [Ec]2"^piu lento" ||"^Refrain" [Ec] | [Fc]2 [FA] [_EG]2 [EF] | [DF]2 [DG] [DA]2 [DB] | G6 | %14
w: sure, *|||||
w: ing! *|||||
w: ing, *|“My|Dar- ling, do not|weep, My Je- sus,|sleep!”|
w: ther! *|||||
w: ing! *|||||
 F3- F2 |] %15
w: |
w: |
w: |
w: |
w: |
V:2
 x | x6 | x6 | x6 | x6 | x6 | x6 | x6 | x6 | x5 || x | x6 | x6 | D3 E3 | F3- F2 |] %15
V:3
 [F,C] | [F,C]2 [F,C] [F,A,]2 [F,C] | [B,D]3 [B,D]2 [A,D] | [G,D]2 [G,D] [C,B,]2 [C,C] | %4
 (D2 C) [F,C]2 [E,C] | [D,=B,]2 [D,B,] [C,A,]2 [C,C] | ([=B,,D]2 [C,C]) [D,=B,]2 [G,,B,] | %7
 [C,C]2 [C,C] [A,,D]2 [A,,_E] | ([G,,-E]3 [G,,=B,]3) | [C,-C]3 [C,B,]2 || [C,B,] | %11
 [F,A,]2 [F,A,] [A,,C]2 [A,,C] | [B,,C]2 [B,,B,] [G,,B,]2 [G,,B,] | ([C,B,]6 | [F,A,]3- [F,A,]2) |] %15
V:4
 x | x6 | x6 | x6 | F,3 x3 | x6 | x6 | x6 | x6 | x5 || x | x6 | x6 | x6 | x5 |] %15

